src/img/check.svg

<svg
 xmlns="http://www.w3.org/2000/svg"
 xmlns:xlink="http://www.w3.org/1999/xlink"
 width="15px" height="15px">
<path fill-rule="evenodd"  fill="rgb(132, 171, 49)"
 d="M7.520,-0.000 C3.356,-0.000 -0.000,3.355 -0.000,7.519 C-0.000,11.643 3.356,15.000 7.520,15.000 C11.644,15.000 15.000,11.644 15.000,7.519 C15.000,3.355 11.644,-0.000 7.520,-0.000 ZM11.806,5.781 L6.550,11.038 C6.226,11.321 5.781,11.321 5.458,11.038 L3.234,8.773 C2.507,8.086 3.598,7.035 4.285,7.722 L6.024,9.461 L10.714,4.730 C11.442,4.043 12.493,5.094 11.806,5.781 L11.806,5.781 Z"/>
</svg>

<svg xmlns="http://www.w3.org/2000/svg" width="15" height="15"><path fill-rule="evenodd" fill="#84AB31" d="M7.52 0a7.5 7.5 0 1 0-.03 15.01 7.5 7.5 0 0 0 .03-15.01Zm4.29 5.78-5.26 5.26a.8.8 0 0 1-1.1 0l-2.22-2.27c-.72-.68.37-1.73 1.06-1.05l1.73 1.74 4.7-4.73c.72-.69 1.77.36 1.09 1.05Z"/></svg>
